X: 95
T:Tom Ward's Downfall
B:Trip to Sligo
M:C
L:1/8
K:G
dc || BGGF GEDG| EDEG AEGE| DEGA B2 Bd| ed ~d2 Bdgd|
BGGF GEDG| EDEG A2 GE| DEGA B2 Bd| gedc BG ~G2 :||
| dggf gedg | eaag a2 ga| bggf gbaf| gedc BG ~G2|
dggf gedg| eaag a2 ga| b2 ag egfa|1 gedc BG ~G2:|2 gedB A2 GA||
